X:1
T:Pearsall, 76.76 D
T:Pearsall, 76.76 D
T:Robert Lucas Pearsall (1795-1856)
T:Public Domain Courtesy of the Cyber Hymnal™
C:Robert Lucas Pearsall (1795-1856)
Z:Public Domain
Z:Courtesy of the Cyber Hymnal™
%%score ( 1 2 ) ( 3 4 )
L:1/8
M:none
K:D
V:1 treble 
V:2 treble 
V:3 bass 
V:4 bass 
V:1
 [FA]2 | [Dd]2 [Gc]2 [Fd]2 F2 | [GB]4 [FA]2 [FA]2 | [EG]2 [DF]2 [DE]2 [CE]2 | [DF]6 [A,D]2 | %5
 [DF]2 [DG]2 [EA]2 [FA]2 | [GB]4 [FA]2 [FA]2 | [GB]2 [Gc]2 [Fd]2 (ed) | [Ac]6 [Ad]2 | %9
 [GB]2 [FA]2 [EG]2 [^DF]2 | [EG]4 E2 [FB]2 | [EA]2 A2 [DF]2 E2 | [DA]6 (Bc) | %13
 [Fd]2 [Gc]2 [Fd]2 F2 | [GB]4 [FA]2 [DA]2 | [DG]2 [DF]2 [DE]2 [CE]2 | D6 |] %17
V:2
 x2 | x8 | x8 | x8 | x8 | x8 | x8 | x6 ^G2 | x8 | x8 | x4 E2 x2 | x2 (B,C) x4 | x6 G2 | x8 | x8 | %15
 x8 | D6 |] %17
V:3
 [D,D]2 | [F,A,]2 [E,G,]2 B,2 [A,C]2 | [G,D]4 [D,D]2 (DC) | [E,B,]2 [F,A,]2 [G,B,]2 A,2 | %4
 [D,A,]6 [F,A,]2 | [D,A,]2 [B,,B,]2 [A,,C]2 [D,D]2 | [G,,D]4 [D,D]2 [D,D]2 | %7
 [G,D]2 [E,E]2 [B,D]2 [B,D]2 | [A,C]6 [F,D]2 | [G,D]2 [D,D]2 [E,B,]2 [B,,B,]2 | %10
 [E,B,]4 [G,B,]2 (F,G,) | [C,A,]2 (B,G,) [D,A,]2 [G,B,]2 | [F,A,]6 [E,G,]2 | %13
 [D,A,]2 [E,E]2 [B,D]2 [A,C]2 | [G,D]4 [D,D]2 [F,D]2 | [G,B,]2 [D,A,]2 [G,,B,]2 (A,G,) | [D,F,]6 |] %17
V:4
 x2 | x8 | x6 D,2 | x8 | x8 | x8 | x8 | x8 | x8 | x8 | x6 D,2 | x2 E,2 x4 | x8 | x8 | x8 | %15
 x6 A,,2 | x6 |] %17

